contributed-vectors/ludo_king_alt.svg

<svg xmlns="http://www.w3.org/2000/svg" width="192" height="192" fill="none"><g clip-path="url(#a)"><g clip-path="url(#b)"><path fill="#fff" d="M30 104c12.15 0 22-9.85 22-22s-9.85-22-22-22S8 69.85 8 82s9.85 22 22 22ZM74 104c12.15 0 22-9.85 22-22s-9.85-22-22-22-22 9.85-22 22 9.85 22 22 22ZM118 104c12.15 0 22-9.85 22-22s-9.85-22-22-22-22 9.85-22 22 9.85 22 22 22ZM162 104c12.15 0 22-9.85 22-22s-9.85-22-22-22-22 9.85-22 22 9.85 22 22 22Z"/><path fill="#9ABEFF" d="M35 87.6v3.6H25V72.9h4v14.7h6Z"/><path fill="#FF837D" d="M66.5 85.1V72.9h4v11.5c0 1.8 1.5 3.2 3.5 3.2s3.5-1.4 3.5-3.2V72.9h4v12.2c0 3.4-3.2 6-7.5 6-4.2 0-7.5-2.6-7.5-6Z"/><path fill="#98DC9A" d="M111.8 72.9h6c5 0 9.1 4.1 9.1 9.1s-4.1 9.1-9.1 9.1h-6V72.9Zm5.9 14.7c2.9 0 5.1-2.4 5.1-5.6 0-3.2-2.3-5.6-5.1-5.6h-2v11.1h2v.1Z"/><path fill="#F9DE81" d="M152.9 82c0-5 4.1-9.1 9.1-9.1 5.1 0 9.1 4.1 9.1 9.1s-4.1 9.1-9.1 9.1-9.1-4.1-9.1-9.1Zm14.4 0c0-3-2.3-5.3-5.3-5.3s-5.3 2.3-5.3 5.3 2.3 5.3 5.3 5.3 5.3-2.3 5.3-5.3ZM69 123h-.6v8.1h-3.9v-17.7h3.9v6.3h.7l5.8-6.3h5l-7.7 7.9 8.6 9.9h-5.2L69 123ZM82.1 113.4H86v17.8h-3.9v-17.8ZM106.3 113.4v17.8h-4l-8.7-11.8v11.8h-3.9v-17.8h4l8.7 11.8v-11.8h3.9ZM127.5 121.4v.9c0 5-4.1 9.1-9.1 9.1-5.1 0-9.1-4.1-9.1-9.1s4.1-9.1 9.1-9.1c3.5 0 6.5 2 8.1 4.9l-3.4 1.7c-.9-1.7-2.6-2.8-4.7-2.8-3 0-5.3 2.3-5.3 5.3s2.3 5.3 5.3 5.3c2.2 0 4-1.2 4.9-3.1h-4.9v-3.1h9.1Z"/></g></g><defs><clipPath id="a"><path fill="#fff" d="M0 0h192v192H0z"/></clipPath><clipPath id="b"><path fill="#fff" d="M8 60h176v71.4H8z"/></clipPath></defs></svg>

<svg width="192" height="192" viewBox="0 0 192 192" fill="none" xmlns="http://www.w3.org/2000/svg">
<g clip-path="url(#clip0)">
<g clip-path="url(#clip1)">
<path d="M30 104C42.1503 104 52 94.1503 52 82C52 69.8497 42.1503 60 30 60C17.8497 60 8 69.8497 8 82C8 94.1503 17.8497 104 30 104Z" fill="white"/>
<path d="M74 104C86.1503 104 96 94.1503 96 82C96 69.8497 86.1503 60 74 60C61.8497 60 52 69.8497 52 82C52 94.1503 61.8497 104 74 104Z" fill="white"/>
<path d="M118 104C130.15 104 140 94.1503 140 82C140 69.8497 130.15 60 118 60C105.85 60 96 69.8497 96 82C96 94.1503 105.85 104 118 104Z" fill="white"/>
<path d="M162 104C174.15 104 184 94.1503 184 82C184 69.8497 174.15 60 162 60C149.85 60 140 69.8497 140 82C140 94.1503 149.85 104 162 104Z" fill="white"/>
<path d="M35 87.6V91.2H25V72.9H29V87.6H35Z" fill="#9ABEFF"/>
<path d="M66.5 85.1V72.9H70.5V84.4C70.5 86.2 72 87.6 74 87.6C76 87.6 77.5 86.2 77.5 84.4V72.9H81.5V85.1C81.5 88.5 78.3 91.1 74 91.1C69.8 91.1 66.5 88.5 66.5 85.1Z" fill="#FF837D"/>
<path d="M111.8 72.9H117.8C122.8 72.9 126.9 77 126.9 82C126.9 87 122.8 91.1 117.8 91.1H111.8V72.9ZM117.7 87.6C120.6 87.6 122.8 85.2 122.8 82C122.8 78.8 120.5 76.4 117.7 76.4H115.7V87.5H117.7V87.6Z" fill="#98DC9A"/>
<path d="M152.9 82C152.9 77 157 72.9 162 72.9C167.1 72.9 171.1 77 171.1 82C171.1 87 167 91.1 162 91.1C157 91.1 152.9 87 152.9 82ZM167.3 82C167.3 79 165 76.7 162 76.7C159 76.7 156.7 79 156.7 82C156.7 85 159 87.3 162 87.3C165 87.3 167.3 85 167.3 82Z" fill="#F9DE81"/>
<path d="M69 123H68.4V131.1H64.5V113.4H68.4V119.7H69.1L74.9 113.4H79.9L72.2 121.3L80.8 131.2H75.6L69 123Z" fill="#F9DE81"/>
<path d="M82.1 113.4H86V131.2H82.1V113.4Z" fill="#F9DE81"/>
<path d="M106.3 113.4V131.2H102.3L93.6 119.4V131.2H89.7V113.4H93.7L102.4 125.2V113.4H106.3Z" fill="#F9DE81"/>
<path d="M127.5 121.4V122.3C127.5 127.3 123.4 131.4 118.4 131.4C113.3 131.4 109.3 127.3 109.3 122.3C109.3 117.3 113.4 113.2 118.4 113.2C121.9 113.2 124.9 115.2 126.5 118.1L123.1 119.8C122.2 118.1 120.5 117 118.4 117C115.4 117 113.1 119.3 113.1 122.3C113.1 125.3 115.4 127.6 118.4 127.6C120.6 127.6 122.4 126.4 123.3 124.5H118.4V121.4H127.5Z" fill="#F9DE81"/>
</g>
</g>
<defs>
<clipPath id="clip0">
<rect width="192" height="192" fill="white"/>
</clipPath>
<clipPath id="clip1">
<rect width="176" height="71.4" fill="white" transform="translate(8 60)"/>
</clipPath>
</defs>
</svg>
